X:1
R: jig
M: 6/8
L: 1/8
T:Marcus Llope
K:D
"D"DFG FGd-|dAF D2 d|"A"cAE FGF|"G"DE/F/G AFD|
"D"DFG FGd-|dAF D2 A|"G"G2 g fdA|1 "A"e2 f d3:|2 "A"e2 f z dc||
|:"G"B2B cd"Bm7"f-|fdA def|"A"eAd efa |f2 e zdc|
"G"B2B cdf-|"D/F#"fdA d2B|"A"AB/c/d gfd-|1 "D"d3 zdc:|2 "G"d6||
